Newaita-dark/apps/scalable/system-search.svg

<?xml version="1.0" encoding="UTF-8"?>
<svg xmlns="http://www.w3.org/2000/svg" xmlns:xlink="http://www.w3.org/1999/xlink" width="512pt" height="512pt" viewBox="0 0 512 512" version="1.1">
<defs>
<linearGradient id="linear0" gradientUnits="userSpaceOnUse" x1="190.490372" y1="105.008377" x2="190.490372" y2="-148.991623" gradientTransform="matrix(1.000095,0,0,1.000095,21.178315,227.096643)">
<stop offset="0" style="stop-color:rgb(0.392157%,34.117647%,60.784314%);stop-opacity:0.392157;"/>
<stop offset="1" style="stop-color:rgb(0.784314%,46.666667%,74.117647%);stop-opacity:0.392157;"/>
</linearGradient>
<linearGradient id="linear1" gradientUnits="userSpaceOnUse" x1="190.5" y1="127.666656" x2="190.485031" y2="-88.67215" gradientTransform="matrix(0.642919,0,0,0.642919,89.220533,219.774505)">
<stop offset="0" style="stop-color:rgb(96.078431%,96.078431%,96.078431%);stop-opacity:0.392157;"/>
<stop offset="1" style="stop-color:rgb(98.039216%,98.039216%,98.039216%);stop-opacity:0.392157;"/>
</linearGradient>
<radialGradient id="radial0" gradientUnits="userSpaceOnUse" cx="450.908936" cy="189.579361" fx="450.908936" fy="189.579361" r="21.166656" gradientTransform="matrix(0.00000278673,-1.250119,-2.250215,-0.00000162462,828.798205,1017.525308)">
<stop offset="0" style="stop-color:rgb(0%,0%,0%);stop-opacity:0.313725;"/>
<stop offset="0.222222" style="stop-color:rgb(0%,0%,0%);stop-opacity:0.27451;"/>
<stop offset="1" style="stop-color:rgb(0%,0%,0%);stop-opacity:0;"/>
</radialGradient>
<radialGradient id="radial1" gradientUnits="userSpaceOnUse" cx="450.908936" cy="189.579361" fx="450.908936" fy="189.579361" r="21.166656" gradientTransform="matrix(-0.00000278673,1.250119,2.250215,0.00000162462,-19.095848,-120.439675)">
<stop offset="0" style="stop-color:rgb(0%,0%,0%);stop-opacity:0.313725;"/>
<stop offset="0.222222" style="stop-color:rgb(0%,0%,0%);stop-opacity:0.27451;"/>
<stop offset="1" style="stop-color:rgb(0%,0%,0%);stop-opacity:0;"/>
</radialGradient>
<radialGradient id="radial2" gradientUnits="userSpaceOnUse" cx="450.908936" cy="189.579361" fx="450.908936" fy="189.579361" r="21.166656" gradientTransform="matrix(-0.00000278673,-1.250119,2.250215,-0.00000162462,-19.095848,1017.525308)">
<stop offset="0" style="stop-color:rgb(0%,0%,0%);stop-opacity:0.313725;"/>
<stop offset="0.222222" style="stop-color:rgb(0%,0%,0%);stop-opacity:0.27451;"/>
<stop offset="1" style="stop-color:rgb(0%,0%,0%);stop-opacity:0;"/>
</radialGradient>
<radialGradient id="radial3" gradientUnits="userSpaceOnUse" cx="450.908936" cy="189.579361" fx="450.908936" fy="189.579361" r="21.166656" gradientTransform="matrix(0.00000278673,1.250119,-2.250215,0.00000162462,828.798175,-120.439683)">
<stop offset="0" style="stop-color:rgb(0%,0%,0%);stop-opacity:0.313725;"/>
<stop offset="0.222222" style="stop-color:rgb(0%,0%,0%);stop-opacity:0.27451;"/>
<stop offset="1" style="stop-color:rgb(0%,0%,0%);stop-opacity:0;"/>
</radialGradient>
<linearGradient id="linear2" gradientUnits="userSpaceOnUse" x1="255.323059" y1="233.5" x2="255.323044" y2="254.666656" gradientTransform="matrix(0.213761,0,0,1.000095,286.767037,215.020576)">
<stop offset="0" style="stop-color:rgb(0%,0%,0%);stop-opacity:0.27451;"/>
<stop offset="1" style="stop-color:rgb(0%,0%,0%);stop-opacity:0;"/>
</linearGradient>
<linearGradient id="linear3" gradientUnits="userSpaceOnUse" x1="192.736588" y1="165.093643" x2="477.111359" y2="-145.133408" gradientTransform="matrix(0.707174,-0.707174,0.648243,0.648243,63.626811,477.820375)">
<stop offset="0" style="stop-color:rgb(25.882353%,25.882353%,25.882353%);stop-opacity:1;"/>
<stop offset="1" style="stop-color:rgb(38.039216%,38.039216%,38.039216%);stop-opacity:1;"/>
</linearGradient>
<linearGradient id="linear4" gradientUnits="userSpaceOnUse" x1="257.64035" y1="224.72374" x2="354.926453" y2="127.43763" gradientTransform="matrix(0.707174,-0.707174,0.707174,0.707174,61.089572,471.820615)">
<stop offset="0" style="stop-color:rgb(55.294118%,43.137255%,38.823529%);stop-opacity:1;"/>
<stop offset="1" style="stop-color:rgb(63.137255%,53.333333%,49.803922%);stop-opacity:1;"/>
</linearGradient>
</defs>
<g id="surface1">
<path style=" stroke:none;fill-rule:nonzero;fill:url(#linear0);" d="M 211.695312 58.414062 C 293.535156 58.414062 359.878906 124.757812 359.878906 206.59375 C 359.878906 288.433594 293.535156 354.777344 211.695312 354.777344 C 129.859375 354.777344 63.515625 288.433594 63.515625 206.59375 C 63.515625 124.757812 129.859375 58.414062 211.695312 58.414062 Z M 211.695312 58.414062 "/>
<path style=" stroke:none;fill-rule:nonzero;fill:url(#linear1);" d="M 296.363281 162.765625 C 296.367188 163.261719 296.371094 163.757812 296.371094 164.257812 C 296.371094 228.757812 244.445312 280.683594 179.941406 280.683594 C 168.125 280.683594 156.734375 278.941406 146.003906 275.695312 C 163.070312 291.921875 186.179688 301.855469 211.695312 301.855469 C 264.46875 301.855469 306.957031 259.367188 306.957031 206.59375 C 306.957031 190.769531 303.132812 175.871094 296.363281 162.765625 Z M 296.363281 162.765625 "/>
<path style=" stroke:none;fill-rule:nonzero;fill:url(#radial0);" d="M 407.496094 448.542969 L 449.835938 448.542969 L 449.835938 427.375 L 407.496094 427.375 Z M 407.496094 448.542969 "/>
<path style=" stroke:none;fill-rule:nonzero;fill:url(#radial1);" d="M 402.203125 448.542969 L 359.867188 448.542969 L 359.867188 469.710938 L 402.203125 469.710938 Z M 402.203125 448.542969 "/>
<path style=" stroke:none;fill-rule:nonzero;fill:url(#radial2);" d="M 402.203125 448.542969 L 359.867188 448.542969 L 359.867188 427.375 L 402.203125 427.375 Z M 402.203125 448.542969 "/>
<path style=" stroke:none;fill-rule:nonzero;fill:url(#radial3);" d="M 407.496094 448.542969 L 449.835938 448.542969 L 449.835938 469.710938 L 407.496094 469.710938 Z M 407.496094 448.542969 "/>
<path style=" stroke:none;fill-rule:nonzero;fill:url(#linear2);" d="M 402.203125 448.542969 L 407.496094 448.542969 L 407.496094 469.710938 L 402.203125 469.710938 Z M 402.203125 448.542969 "/>
<path style=" stroke:none;fill-rule:nonzero;fill:url(#linear3);" d="M 211.6875 46.335938 C 123.730469 46.335938 52.921875 117.148438 52.921875 205.101562 C 52.921875 293.058594 123.730469 363.867188 211.6875 363.867188 C 248.464844 363.867188 282.242188 351.484375 309.101562 330.648438 L 330.996094 352.542969 L 360.929688 322.605469 L 338.796875 300.46875 C 358.6875 273.953125 370.453125 240.953125 370.453125 205.101562 C 370.453125 117.148438 299.644531 46.335938 211.6875 46.335938 Z M 211.824219 78.089844 C 282.269531 78.089844 338.976562 134.738281 338.976562 205.101562 C 338.976562 275.46875 282.269531 332.113281 211.824219 332.113281 C 141.382812 332.113281 84.675781 275.46875 84.675781 205.101562 C 84.675781 134.738281 141.382812 78.089844 211.824219 78.089844 Z M 211.824219 78.089844 "/>
<path style=" stroke:none;fill-rule:nonzero;fill:url(#linear4);" d="M 330.996094 352.542969 L 360.929688 322.605469 C 369.199219 314.339844 382.601562 314.339844 390.867188 322.605469 L 450.742188 382.480469 C 459.007812 390.746094 459.007812 404.152344 450.742188 412.417969 L 420.804688 442.355469 C 412.539062 450.621094 399.136719 450.621094 390.867188 442.355469 L 330.996094 382.480469 C 322.726562 374.214844 322.726562 360.8125 330.996094 352.542969 Z M 330.996094 352.542969 "/>
<path style=" stroke:none;fill-rule:nonzero;fill:rgb(100%,100%,100%);fill-opacity:0.392157;" d="M 211.6875 46.335938 C 123.730469 46.335938 52.921875 117.148438 52.921875 205.101562 C 52.921875 205.988281 52.929688 206.867188 52.945312 207.75 C 54.347656 121.023438 124.613281 51.628906 211.6875 51.628906 C 298.765625 51.628906 369.035156 121.03125 370.429688 207.765625 C 370.441406 206.878906 370.453125 205.992188 370.453125 205.101562 C 370.453125 117.148438 299.644531 46.335938 211.6875 46.335938 Z M 84.703125 207.75 C 84.6875 208.628906 84.675781 209.511719 84.675781 210.394531 C 84.675781 280.757812 141.382812 337.40625 211.824219 337.40625 C 282.269531 337.40625 338.976562 280.757812 338.976562 210.394531 C 338.976562 209.511719 338.964844 208.628906 338.949219 207.75 C 337.546875 276.882812 281.382812 332.113281 211.824219 332.113281 C 142.269531 332.113281 86.105469 276.882812 84.703125 207.75 Z M 341.03125 302.703125 C 340.296875 303.734375 339.550781 304.753906 338.796875 305.761719 L 358.285156 325.253906 L 360.929688 322.605469 Z M 341.03125 302.703125 "/>
<path style=" stroke:none;fill-rule:nonzero;fill:rgb(0%,0%,0%);fill-opacity:0.235294;" d="M 211.824219 74.265625 C 141.382812 74.265625 84.675781 130.910156 84.675781 201.277344 C 84.675781 201.914062 84.679688 202.554688 84.691406 203.1875 C 85.707031 133.714844 142.023438 78.089844 211.824219 78.089844 C 281.628906 78.089844 337.945312 133.714844 338.960938 203.1875 C 338.972656 202.554688 338.976562 201.914062 338.976562 201.277344 C 338.976562 130.910156 282.269531 74.265625 211.824219 74.265625 Z M 370.441406 203.175781 C 370.03125 238.289062 358.335938 270.59375 338.796875 296.644531 L 340.417969 298.265625 C 359.324219 272.132812 370.453125 239.964844 370.453125 205.101562 C 370.453125 204.457031 370.449219 203.816406 370.441406 203.175781 Z M 52.933594 203.1875 C 52.925781 203.828125 52.921875 204.464844 52.921875 205.101562 C 52.921875 293.058594 123.730469 363.867188 211.6875 363.867188 C 248.464844 363.867188 282.242188 351.484375 309.101562 330.648438 L 330.996094 352.542969 L 360.929688 322.605469 L 359.019531 320.695312 L 330.996094 348.71875 L 309.101562 326.824219 C 282.242188 347.660156 248.464844 360.042969 211.6875 360.042969 C 124.371094 360.042969 53.953125 290.257812 52.933594 203.1875 Z M 52.933594 203.1875 "/>
<path style=" stroke:none;fill-rule:nonzero;fill:rgb(12.941177%,12.941177%,12.941177%);fill-opacity:1;" d="M 211.6875 44.839844 C 122.925781 44.839844 51.421875 116.34375 51.421875 205.105469 C 51.421875 293.863281 122.925781 365.367188 211.6875 365.367188 C 248.320312 365.367188 281.996094 353.148438 308.9375 332.605469 L 328.910156 352.578125 C 329.234375 352.207031 329.578125 351.839844 329.933594 351.484375 L 330.996094 350.421875 L 310.160156 329.589844 C 309.625 329.054688 308.777344 329 308.179688 329.464844 C 281.574219 350.101562 248.125 362.367188 211.6875 362.367188 C 124.535156 362.367188 54.421875 292.253906 54.421875 205.105469 C 54.421875 117.953125 124.535156 47.839844 211.6875 47.839844 C 298.835938 47.839844 368.953125 117.953125 368.953125 205.105469 C 368.953125 240.625 357.300781 273.300781 337.59375 299.570312 C 337.144531 300.167969 337.207031 301.003906 337.734375 301.53125 L 358.808594 322.605469 L 359.871094 321.546875 C 360.226562 321.1875 360.59375 320.847656 360.964844 320.519531 L 340.738281 300.292969 C 360.347656 273.703125 371.953125 240.808594 371.953125 205.105469 C 371.953125 116.34375 300.449219 44.839844 211.6875 44.839844 Z M 211.828125 76.589844 C 140.582031 76.589844 83.175781 133.933594 83.175781 205.105469 C 83.175781 276.273438 140.582031 333.617188 211.828125 333.617188 C 283.074219 333.617188 340.476562 276.273438 340.476562 205.105469 C 340.476562 133.933594 283.074219 76.589844 211.828125 76.589844 Z M 211.828125 79.589844 C 281.464844 79.589844 337.476562 135.546875 337.476562 205.105469 C 337.476562 274.664062 281.464844 330.617188 211.828125 330.617188 C 142.1875 330.617188 86.175781 274.664062 86.175781 205.105469 C 86.175781 135.546875 142.1875 79.589844 211.828125 79.589844 Z M 211.828125 79.589844 "/>
<path style=" stroke:none;fill-rule:nonzero;fill:rgb(100%,100%,100%);fill-opacity:0.392157;" d="M 375.898438 316.386719 C 370.488281 316.386719 365.078125 318.460938 360.929688 322.605469 L 330.996094 352.542969 C 326.253906 357.28125 324.230469 363.671875 324.90625 369.828125 C 325.414062 365.210938 327.441406 360.730469 330.996094 357.175781 L 360.929688 327.238281 C 369.222656 318.945312 382.578125 318.945312 390.867188 327.238281 L 450.742188 387.113281 C 454.296875 390.664062 456.324219 395.148438 456.832031 399.765625 C 457.507812 393.609375 455.480469 387.21875 450.742188 382.480469 L 390.867188 322.605469 C 386.722656 318.460938 381.3125 316.386719 375.898438 316.386719 Z M 375.898438 316.386719 "/>
<path style=" stroke:none;fill-rule:nonzero;fill:rgb(0%,0%,0%);fill-opacity:0.235294;" d="M 405.835938 449.0625 C 411.25 449.0625 416.660156 446.988281 420.804688 442.84375 L 450.742188 412.90625 C 455.480469 408.167969 457.507812 401.777344 456.832031 395.621094 C 456.324219 400.238281 454.296875 404.71875 450.742188 408.273438 L 420.804688 438.210938 C 412.511719 446.503906 399.160156 446.503906 390.867188 438.210938 L 330.996094 378.335938 C 327.441406 374.78125 325.414062 370.300781 324.90625 365.683594 C 324.230469 371.839844 326.253906 378.230469 330.996094 382.96875 L 390.867188 442.84375 C 395.015625 446.988281 400.425781 449.0625 405.835938 449.0625 Z M 405.835938 449.0625 "/>
<path style=" stroke:none;fill-rule:nonzero;fill:rgb(12.941177%,12.941177%,12.941177%);fill-opacity:1;" d="M 329.933594 351.484375 C 321.070312 360.34375 321.070312 374.679688 329.933594 383.542969 L 389.808594 443.414062 C 398.667969 452.277344 413.003906 452.277344 421.863281 443.414062 L 451.800781 413.476562 C 460.664062 404.617188 460.664062 390.28125 451.800781 381.421875 L 391.929688 321.546875 C 383.066406 312.683594 368.730469 312.683594 359.871094 321.546875 Z M 332.054688 353.605469 L 361.992188 323.667969 C 369.714844 315.945312 382.085938 315.945312 389.808594 323.667969 L 449.679688 383.542969 C 457.40625 391.265625 457.40625 403.632812 449.679688 411.355469 L 419.742188 441.292969 C 412.019531 449.015625 399.652344 449.015625 391.929688 441.292969 L 332.054688 381.421875 C 324.332031 373.695312 324.332031 361.328125 332.054688 353.605469 Z M 332.054688 353.605469 "/>
</g>
</svg>

<svg xmlns="http://www.w3.org/2000/svg" width="512pt" height="512pt" viewBox="0 0 512 512"><defs><linearGradient id="a" gradientUnits="userSpaceOnUse" x1="190.49" y1="105.008" x2="190.49" y2="-148.992" gradientTransform="matrix(1.0001 0 0 1.0001 21.178 227.097)"><stop offset="0" stop-color="#01579b" stop-opacity=".392"/><stop offset="1" stop-color="#0277bd" stop-opacity=".392"/></linearGradient><linearGradient id="b" gradientUnits="userSpaceOnUse" x1="190.5" y1="127.667" x2="190.485" y2="-88.672" gradientTransform="matrix(.64292 0 0 .64292 89.22 219.775)"><stop offset="0" stop-color="#f5f5f5" stop-opacity=".392"/><stop offset="1" stop-color="#fafafa" stop-opacity=".392"/></linearGradient><radialGradient id="c" gradientUnits="userSpaceOnUse" cx="450.909" cy="189.579" fx="450.909" fy="189.579" r="21.167" gradientTransform="matrix(0 -1.25012 -2.25021 0 828.798 1017.525)"><stop offset="0" stop-opacity=".314"/><stop offset=".222" stop-opacity=".275"/><stop offset="1" stop-opacity="0"/></radialGradient><radialGradient id="d" gradientUnits="userSpaceOnUse" cx="450.909" cy="189.579" fx="450.909" fy="189.579" r="21.167" gradientTransform="matrix(0 1.25012 2.25021 0 -19.096 -120.44)"><stop offset="0" stop-opacity=".314"/><stop offset=".222" stop-opacity=".275"/><stop offset="1" stop-opacity="0"/></radialGradient><radialGradient id="e" gradientUnits="userSpaceOnUse" cx="450.909" cy="189.579" fx="450.909" fy="189.579" r="21.167" gradientTransform="matrix(0 -1.25012 2.25021 0 -19.096 1017.525)"><stop offset="0" stop-opacity=".314"/><stop offset=".222" stop-opacity=".275"/><stop offset="1" stop-opacity="0"/></radialGradient><radialGradient id="f" gradientUnits="userSpaceOnUse" cx="450.909" cy="189.579" fx="450.909" fy="189.579" r="21.167" gradientTransform="matrix(0 1.25012 -2.25021 0 828.798 -120.44)"><stop offset="0" stop-opacity=".314"/><stop offset=".222" stop-opacity=".275"/><stop offset="1" stop-opacity="0"/></radialGradient><linearGradient id="g" gradientUnits="userSpaceOnUse" x1="255.323" y1="233.5" x2="255.323" y2="254.667" gradientTransform="matrix(.21376 0 0 1.0001 286.767 215.02)"><stop offset="0" stop-opacity=".275"/><stop offset="1" stop-opacity="0"/></linearGradient><linearGradient id="h" gradientUnits="userSpaceOnUse" x1="192.737" y1="165.094" x2="477.111" y2="-145.133" gradientTransform="rotate(-45 608.594 162.11) scale(1.0001 .91675)"><stop offset="0" stop-color="#424242"/><stop offset="1" stop-color="#616161"/></linearGradient><linearGradient id="i" gradientUnits="userSpaceOnUse" x1="257.64" y1="224.724" x2="354.926" y2="127.438" gradientTransform="scale(1.0001) rotate(-45 600.026 162.153)"><stop offset="0" stop-color="#8d6e63"/><stop offset="1" stop-color="#a1887f"/></linearGradient></defs><path d="M211.695 58.414c81.84 0 148.184 66.344 148.184 148.18 0 81.84-66.344 148.183-148.184 148.183-81.836 0-148.18-66.343-148.18-148.183 0-81.836 66.344-148.18 148.18-148.18zm0 0" fill="url(#a)"/><path d="M296.363 162.766c.004.496.008.992.008 1.492 0 64.5-51.926 116.426-116.43 116.426-11.816 0-23.207-1.743-33.937-4.989 17.066 16.227 40.176 26.16 65.691 26.16 52.774 0 95.262-42.488 95.262-95.261 0-15.824-3.824-30.723-10.594-43.828zm0 0" fill="url(#b)"/><path d="M407.496 448.543h42.34v-21.168h-42.34zm0 0" fill="url(#c)"/><path d="M402.203 448.543h-42.336v21.168h42.336zm0 0" fill="url(#d)"/><path d="M402.203 448.543h-42.336v-21.168h42.336zm0 0" fill="url(#e)"/><path d="M407.496 448.543h42.34v21.168h-42.34zm0 0" fill="url(#f)"/><path d="M402.203 448.543h5.293v21.168h-5.293zm0 0" fill="url(#g)"/><path d="M211.688 46.336c-87.958 0-158.766 70.812-158.766 158.766 0 87.957 70.808 158.765 158.766 158.765 36.777 0 70.554-12.383 97.414-33.219l21.894 21.895 29.934-29.938-22.133-22.136c19.89-26.516 31.656-59.516 31.656-95.367 0-87.954-70.808-158.766-158.765-158.766zm.136 31.754c70.446 0 127.153 56.648 127.153 127.012 0 70.367-56.707 127.011-127.153 127.011-70.441 0-127.148-56.644-127.148-127.011 0-70.364 56.707-127.012 127.148-127.012zm0 0" fill="url(#h)"/><path d="M330.996 352.543l29.934-29.938c8.27-8.265 21.672-8.265 29.937 0l59.875 59.875c8.266 8.266 8.266 21.672 0 29.938l-29.937 29.937c-8.266 8.266-21.668 8.266-29.938 0l-59.87-59.875c-8.27-8.265-8.27-21.668 0-29.937zm0 0" fill="url(#i)"/><path d="M211.688 46.336c-87.958 0-158.766 70.812-158.766 158.766 0 .886.008 1.765.023 2.648 1.403-86.727 71.668-156.121 158.743-156.121 87.078 0 157.347 69.402 158.742 156.137.011-.887.023-1.774.023-2.664 0-87.954-70.808-158.766-158.765-158.766zM84.703 207.75c-.016.879-.027 1.762-.027 2.645 0 70.363 56.707 127.011 127.148 127.011 70.446 0 127.153-56.648 127.153-127.011 0-.883-.012-1.766-.028-2.645-1.402 69.133-57.566 124.363-127.125 124.363-69.554 0-125.719-55.23-127.12-124.363zm256.328 94.953c-.734 1.031-1.48 2.05-2.234 3.059l19.488 19.492 2.645-2.649zm0 0" fill="#fff" fill-opacity=".392"/><path d="M211.824 74.266c-70.441 0-127.148 56.644-127.148 127.011 0 .637.004 1.278.015 1.91C85.707 133.716 142.023 78.09 211.824 78.09c69.805 0 126.121 55.625 127.137 125.097.012-.632.016-1.273.016-1.91 0-70.367-56.707-127.011-127.153-127.011zm158.617 128.91c-.41 35.113-12.105 67.418-31.644 93.469l1.621 1.62c18.906-26.132 30.035-58.3 30.035-93.163 0-.645-.004-1.286-.012-1.926zm-317.507.012c-.008.64-.012 1.277-.012 1.914 0 87.957 70.808 158.765 158.766 158.765 36.777 0 70.554-12.383 97.414-33.219l21.894 21.895 29.934-29.938-1.91-1.91-28.024 28.024-21.894-21.895c-26.86 20.836-60.637 33.219-97.414 33.219-87.317 0-157.735-69.785-158.754-156.856zm0 0" fill-opacity=".235"/><path d="M211.688 44.84c-88.762 0-160.266 71.504-160.266 160.265 0 88.758 71.504 160.262 160.266 160.262 36.632 0 70.308-12.219 97.25-32.762l19.972 19.973c.324-.371.668-.738 1.024-1.094l1.062-1.062-20.836-20.832a1.498 1.498 0 0 0-1.98-.125c-26.606 20.637-60.055 32.902-96.493 32.902-87.152 0-157.265-70.113-157.265-157.262 0-87.152 70.113-157.265 157.266-157.265 87.148 0 157.265 70.113 157.265 157.265 0 35.52-11.652 68.196-31.36 94.465a1.5 1.5 0 0 0 .141 1.961l21.075 21.074 1.062-1.058c.356-.36.723-.7 1.094-1.027l-20.227-20.227c19.61-26.59 31.215-59.484 31.215-95.188 0-88.761-71.504-160.265-160.265-160.265zm.14 31.75c-71.246 0-128.652 57.344-128.652 128.515 0 71.168 57.406 128.512 128.652 128.512 71.246 0 128.649-57.344 128.649-128.512 0-71.171-57.403-128.515-128.649-128.515zm0 3c69.637 0 125.649 55.957 125.649 125.515 0 69.56-56.012 125.512-125.649 125.512-69.64 0-125.652-55.953-125.652-125.512 0-69.558 56.011-125.515 125.652-125.515zm0 0" fill="#212121"/><path d="M375.898 316.387c-5.41 0-10.82 2.074-14.968 6.218l-29.934 29.938a21.099 21.099 0 0 0-6.09 17.285 21.092 21.092 0 0 1 6.09-12.652l29.934-29.938a21.122 21.122 0 0 1 29.937 0l59.875 59.875a21.082 21.082 0 0 1 6.09 12.653 21.111 21.111 0 0 0-6.09-17.286l-59.875-59.875a21.101 21.101 0 0 0-14.969-6.218zm0 0" fill="#fff" fill-opacity=".392"/><path d="M405.836 449.063a21.101 21.101 0 0 0 14.969-6.22l29.937-29.937a21.111 21.111 0 0 0 6.09-17.285 21.092 21.092 0 0 1-6.09 12.652l-29.937 29.938a21.122 21.122 0 0 1-29.938 0l-59.87-59.875a21.092 21.092 0 0 1-6.09-12.652 21.099 21.099 0 0 0 6.09 17.285l59.87 59.875a21.114 21.114 0 0 0 14.969 6.219zm0 0" fill-opacity=".235"/><path d="M329.934 351.484c-8.864 8.86-8.864 23.196 0 32.059l59.875 59.871c8.859 8.863 23.195 8.863 32.054 0l29.938-29.937c8.863-8.86 8.863-23.196 0-32.055l-59.871-59.875c-8.864-8.863-23.2-8.863-32.059 0zm2.12 2.121l29.938-29.937a19.595 19.595 0 0 1 27.817 0l59.87 59.875a19.583 19.583 0 0 1 0 27.812l-29.937 29.938a19.59 19.59 0 0 1-27.812 0l-59.875-59.871a19.595 19.595 0 0 1 0-27.817zm0 0" fill="#212121"/></svg>
